X:1
T:Shippen Street Land-Lady's -- Reel
R:reel
B:Ryan's Mammoth Collection
N: 283
Z: Contributed by Ray Davies,  ray:davies99.freeserve.co.uk
M:2/4
L:1/16
K:G
uD2|\
.G2(BG) (dG)(BG) | {d}cBcd efge | fgag fdef | gdec BdcA |
.G2(BG) (dG)(BG) | {d}cBcd efge | fgag fdef | gbaf g2 :|
|:ug2|\
.b2.g2 {agfg}.d.g.B.g | .b2.g2 {agfg}.f.g.a.f | \
b2g2 {agfg}dgBg | cAdc BGG2 |
b2g2 {agfg}dgBg | b2g2 {agfg}fgaf | gabg fgaf | gdef g2 :|
